build/img/play-active.svg

<svg width="81" height="62" viewBox="0 0 81 62" fill="none" xmlns="http://www.w3.org/2000/svg">
<g opacity="0.3">
<path d="M78.0208 14.612C78.0208 14.612 77.2961 8.96095 74.9612 6.45835C72.0625 3.22918 68.7614 3.14844 67.312 2.98698C56.6033 2.17969 40.4999 2.17969 40.4999 2.17969H40.4194C40.4194 2.17969 24.316 2.17969 13.6073 2.98698C12.0775 3.14844 8.85679 3.22918 5.95818 6.45835C3.70371 8.96095 2.89854 14.612 2.89854 14.612C2.89854 14.612 2.17389 21.2318 2.17389 27.8516V34.0677C2.17389 40.6875 2.89854 47.3073 2.89854 47.3073C2.89854 47.3073 3.62319 52.9583 5.95818 55.4609C8.85679 58.6901 12.7216 58.6094 14.4124 58.9323C20.5317 59.5781 40.4999 59.7396 40.4999 59.7396C40.4999 59.7396 56.6033 59.7396 67.312 58.9323C68.8419 58.7709 72.0625 58.6901 74.9612 55.4609C77.2156 52.9583 78.0208 47.3073 78.0208 47.3073C78.0208 47.3073 78.7455 40.6875 78.7455 34.0677V27.8516C78.7455 21.2318 78.0208 14.612 78.0208 14.612Z" fill="#63D1BB"/>
<path d="M40.4195 62C39.6143 62 20.2903 61.7578 14.171 61.1927H14.0905H14.0099C13.7684 61.112 13.4463 61.112 13.1243 61.0313C11.1113 60.7891 7.32704 60.3047 4.42843 56.9948C1.69085 54.0886 0.885686 48.2761 0.805169 47.6302C0.805169 47.388 0 40.7682 0 34.1484V27.9323C0 21.2318 0.724659 14.6927 0.724659 14.4505V14.3698C0.805176 13.724 1.69086 7.99217 4.34792 5.00519C7.5686 1.45311 11.1919 1.04948 12.9632 0.888026C13.1243 0.888026 13.2853 0.888021 13.3658 0.807292H13.4463C24.1551 0 40.2585 0 40.4195 0H40.5C40.661 0 56.7644 0 67.4732 0.807292H67.5537C67.7147 0.807292 67.7952 0.807297 67.9563 0.888026C69.7276 1.04948 73.3509 1.45311 76.5716 5.00519C79.3091 7.91144 80.1143 13.724 80.1948 14.3698C80.1948 14.612 81 21.2318 81 27.9323V34.1484C81 40.849 80.2753 47.388 80.1948 47.6302V47.7109C80.1143 48.3568 79.2286 54.1693 76.5716 57.0755C73.3509 60.6276 69.7276 61.0312 67.9563 61.1927C67.7952 61.1927 67.6342 61.1927 67.5537 61.2734H67.4732C56.7644 62 40.5805 62 40.4195 62ZM14.7346 56.8333C20.7734 57.3984 39.8559 57.6406 40.5 57.6406C41.0636 57.6406 56.6839 57.6406 67.0706 56.8333C67.2316 56.8333 67.3926 56.8333 67.5537 56.7526C69.003 56.5911 71.2575 56.349 73.3509 54.0886C74.8002 52.474 75.6859 48.5182 75.8469 47.1458C75.9274 46.7422 76.5716 40.3646 76.5716 34.1484V27.9323C76.5716 21.6354 75.8469 15.3385 75.7664 14.9349C75.5248 12.9974 74.6392 9.44531 73.2704 8.07292C71.1769 5.73177 68.9225 5.5703 67.4732 5.40884C67.3121 5.40884 67.1511 5.40886 66.9901 5.32813C56.4424 4.52084 40.5805 4.52084 40.4195 4.52084H40.339C40.1779 4.52084 24.2356 4.52084 13.7684 5.32813C13.6074 5.32813 13.4463 5.32811 13.2853 5.40884C11.836 5.5703 9.58152 5.8125 7.48809 8.07292C6.03878 9.6875 5.15309 13.6432 4.99206 15.0156C4.91154 15.5 4.2674 21.7969 4.2674 28.013V34.2292C4.2674 40.4453 4.99206 46.8229 4.99206 47.2266C5.23361 49.1641 6.1193 52.7162 7.48809 54.0886C9.33997 56.1875 11.7555 56.5104 13.5269 56.7526C14.01 56.6719 14.332 56.7526 14.7346 56.8333Z" fill="white"/>
<path d="M30.8378 16.5498V45.3701L54.8318 31.0003L30.8378 16.5498Z" fill="white"/>
</g>
</svg>

<svg width="81" height="62" fill="none" xmlns="http://www.w3.org/2000/svg"><g opacity=".3"><path d="M78.02 14.612s-.724-5.651-3.059-8.154c-2.898-3.229-6.2-3.31-7.649-3.471C56.603 2.18 40.5 2.18 40.5 2.18h-.08s-16.104 0-26.813.807c-1.53.161-4.75.242-7.649 3.471-2.254 2.503-3.06 8.154-3.06 8.154s-.724 6.62-.724 13.24v6.216c0 6.62.725 13.24.725 13.24s.724 5.65 3.06 8.153c2.898 3.23 6.763 3.148 8.453 3.471 6.12.646 26.088.808 26.088.808s16.103 0 26.812-.808c1.53-.161 4.75-.242 7.65-3.471 2.254-2.503 3.059-8.154 3.059-8.154s.725-6.62.725-13.24v-6.215c0-6.62-.725-13.24-.725-13.24z" fill="#63D1BB"/><path d="M40.42 62c-.806 0-20.13-.242-26.249-.807h-.161c-.242-.081-.564-.081-.886-.162-2.013-.242-5.797-.726-8.696-4.036C1.691 54.089.886 48.276.805 47.63c0-.242-.805-6.862-.805-13.482v-6.216c0-6.7.725-13.24.725-13.481v-.081c.08-.646.966-6.378 3.623-9.365 3.22-3.552 6.844-3.956 8.615-4.117.161 0 .322 0 .403-.08h.08C24.156 0 40.26 0 40.42 0h.08c.161 0 16.264 0 26.973.807h.08c.162 0 .242 0 .403.081 1.772.161 5.395.565 8.616 4.117 2.737 2.906 3.542 8.719 3.623 9.365 0 .242.805 6.862.805 13.562v6.216c0 6.701-.725 13.24-.805 13.482v.08c-.08.647-.966 6.46-3.623 9.365-3.221 3.553-6.844 3.956-8.616 4.118-.16 0-.322 0-.402.08h-.08C56.763 62 40.58 62 40.418 62zm-25.685-5.167c6.038.565 25.12.808 25.765.808.564 0 16.184 0 26.57-.808.162 0 .323 0 .484-.08 1.449-.162 3.703-.404 5.797-2.664 1.45-1.615 2.335-5.57 2.496-6.943.08-.404.725-6.781.725-12.998v-6.216c0-6.297-.725-12.593-.806-12.997-.241-1.938-1.127-5.49-2.496-6.862-2.093-2.341-4.347-2.503-5.797-2.664-.16 0-.322 0-.483-.08-10.548-.808-26.41-.808-26.57-.808h-.081c-.161 0-16.103 0-26.57.807-.162 0-.323 0-.484.08-1.449.162-3.703.404-5.797 2.665-1.45 1.614-2.335 5.57-2.496 6.943-.08.484-.725 6.78-.725 12.997v6.216c0 6.216.725 12.594.725 12.998.242 1.937 1.127 5.49 2.496 6.862 1.852 2.099 4.267 2.421 6.039 2.664.483-.081.805 0 1.208.08z" fill="#fff"/><path d="M30.838 16.55v28.82L54.832 31 30.838 16.55z" fill="#fff"/></g></svg>
